svg/u1f443.svg

<svg viewBox="0 0 128 128" xmlns="http://www.w3.org/2000/svg" xmlns:xlink="http://www.w3.org/1999/xlink">
  <linearGradient id="h" gradientTransform="matrix(.1599 -1.1147 1.1712 .168 1977.5 297.59)" gradientUnits="userSpaceOnUse" x1="-68.674" x2="-68.674" y1="-1671.9" y2="-1640.7">
    <stop offset=".5993" stop-color="#FFCA28"/>
    <stop offset="1" stop-color="#FFB300"/>
  </linearGradient>
  <path d="m47.69 78.75c17.75-2.84 23.5 22.64 23.5 22.64s5.93 22.1-17.1 19.19c-7.36-0.93-22.52-4.24-32.15-9.08-4.7-2.36-3.72-11.26-3.25-16.5 1.5-16.75 20.28-14.85 29-16.25z" fill="url(#h)"/>
  <defs>
    <path id="g" d="m47.69 78.75c17.75-2.84 23.5 22.64 23.5 22.64s5.93 22.1-17.1 19.19c-7.36-0.93-22.52-4.24-32.15-9.08-4.7-2.36-4.04-11.3-3.25-16.5 2.25-14.75 20.28-14.85 29-16.25z"/>
  </defs>
  <clipPath id="f">
    <use xlink:href="#g"/>
  </clipPath>
  <path clip-path="url(#f)" d="m42.44 123.33c-1.68 3.47-9.05-0.36-14.22-3.73-10.12-6.6-7.42-22.01 6.22-12.27 7 5 9.68 12.54 8 16z" fill="#A15700"/>
  <linearGradient id="e" gradientTransform="matrix(-.1599 -1.1147 -1.1712 .168 -1784.3 297.59)" gradientUnits="userSpaceOnUse" x1="-60.461" x2="-60.461" y1="-1617.4" y2="-1586.2">
    <stop offset=".5993" stop-color="#FFCA28"/>
    <stop offset="1" stop-color="#FFB300"/>
  </linearGradient>
  <path d="m80.31 78.75c-17.75-2.84-23.5 22.64-23.5 22.64s-5.93 22.1 17.1 19.19c7.36-0.93 22.52-4.24 32.15-9.08 4.7-2.36 3.72-11.26 3.25-16.5-1.5-16.75-20.28-14.85-29-16.25z" fill="url(#e)"/>
  <defs>
    <path id="d" d="m80.31 78.75c-17.75-2.84-23.5 22.64-23.5 22.64s-5.93 22.1 17.1 19.19c7.36-0.93 22.52-4.24 32.15-9.08 4.7-2.36 4.04-11.3 3.25-16.5-2.25-14.75-20.28-14.85-29-16.25z"/>
  </defs>
  <clipPath id="c">
    <use xlink:href="#d"/>
  </clipPath>
  <path clip-path="url(#c)" d="m85.56 123.33c1.68 3.47 9.05-0.36 14.22-3.73 10.12-6.6 7.42-22.01-6.22-12.27-7 5-9.68 12.54-8 16z" fill="#A15700"/>
  <radialGradient id="b" cx="63.833" cy="35.43" gradientTransform="matrix(1.0287e-13 1 -.5694 5.8569e-14 84.006 -28.404)" gradientUnits="userSpaceOnUse" r="86.355">
    <stop offset=".7856" stop-color="#FFCA28"/>
    <stop offset="1" stop-color="#F5AC00"/>
  </radialGradient>
  <path d="M87.39,81.88C86.72,57.21,76.64,7,76.64,7H51.25c0,0-10.08,50.21-10.75,74.88 c-0.31,11.41-0.08,22.93,2.25,28.81c1.79,4.5,4.5,8.76,9.09,10.75c3.82,1.65,7.94,2.35,12.04,2.3c3.23-0.04,6.62-0.62,9.77-1.45 c5.87-1.56,9.33-6.14,11.5-11.6C87.47,104.8,87.7,93.28,87.39,81.88z" fill="url(#b)"/>
  <linearGradient id="a" gradientUnits="userSpaceOnUse" x1="18.271" x2="109.73" y1="65.392" y2="65.392">
    <stop offset="0" stop-color="#E6A100"/>
    <stop offset="1" stop-color="#E6A100"/>
  </linearGradient>
  <path d="m74.16 10.03c1.92 9.9 9.09 47.92 10.14 69.55 0.07 1.5 1.24 2.72 2.74 2.84 11.58 0.99 18.44 3.41 19.29 12.85l0.05 0.56c0.34 3.77 1.06 11.62-1.66 12.99-7.41 3.72-18.56 6.6-26.52 8.05-0.46 0.08-0.89 0.27-1.27 0.55-1.23 0.92-2.55 1.57-4.06 1.97-3.22 0.86-6.35 1.33-9.03 1.36h-0.39c-3.79 0-7.3-0.69-10.42-2.04-0.75-0.32-1.47-0.76-2.21-1.32-0.38-0.29-0.82-0.48-1.28-0.57-7.89-1.46-18.93-4.32-26.25-8-2.72-1.36-2-9.22-1.66-12.99l0.05-0.56c0.43-4.78 2.44-7.94 6.33-9.96 3.61-1.87 8.31-2.49 12.84-2.88 1.5-0.13 2.67-1.34 2.74-2.84 1.05-21.62 8.2-59.65 10.12-69.56h20.45m2.46-3h-25.37s-9.42 47.01-10.65 72.41c-9.2 0.8-20.75 2.57-21.91 15.56-0.47 5.24-1.45 14.14 3.25 16.5 7.76 3.9 19.09 6.8 27.06 8.27 0.86 0.66 1.8 1.24 2.84 1.7 3.69 1.6 7.65 2.28 11.61 2.28h0.42c3.23-0.04 6.62-0.63 9.77-1.46 1.95-0.52 3.63-1.37 5.09-2.47 7.98-1.45 19.48-4.38 27.33-8.32 4.7-2.36 3.72-11.26 3.25-16.5-1.17-13.04-12.8-14.78-22.02-15.57-1.23-25.4-10.67-72.4-10.67-72.4z" fill="url(#a)"/>
</svg>

<svg viewBox="0 0 128 128" xmlns="http://www.w3.org/2000/svg">
  <defs>
    <linearGradient id="h" gradientTransform="matrix(0.1599 -1.1147 1.1712 0.168 0 0)" gradientUnits="userSpaceOnUse" x1="-80.92063" x2="-80.92063" y1="18.211199" y2="49.411199">
      <stop offset=".5993" stop-color="#FFCA28"/>
      <stop offset="1" stop-color="#FFB300"/>
    </linearGradient>
    <linearGradient id="e" gradientTransform="matrix(-0.1599 -1.1147 -1.1712 0.168 0 0)" gradientUnits="userSpaceOnUse" x1="-97.067885" x2="-97.067885" y1="-88.921994" y2="-57.721994">
      <stop offset=".5993" stop-color="#FFCA28"/>
      <stop offset="1" stop-color="#FFB300"/>
    </linearGradient>
    <radialGradient id="b" cx="35.429" cy="-112.104247" gradientTransform="matrix(0 1 -0.5694 0 0 0)" gradientUnits="userSpaceOnUse" r="86.355">
      <stop offset=".7856" stop-color="#FFCA28"/>
      <stop offset="1" stop-color="#F5AC00"/>
    </radialGradient>
    <linearGradient id="a" gradientUnits="userSpaceOnUse" x1="18.271" x2="109.73" y1="65.392" y2="65.392">
      <stop offset="0" stop-color="#E6A100"/>
      <stop offset="1" stop-color="#E6A100"/>
    </linearGradient>
  </defs>
  <path d="M47.69,78.75 C65.44,75.91 71.19,101.39 71.19,101.39 C71.19,101.39 77.12,123.49 54.09,120.58 C46.73,119.65 31.57,116.34 21.94,111.5 C17.24,109.14 18.22,100.24 18.69,95 C20.19,78.25 38.97,80.15 47.69,78.75 Z" fill="url(#h)"/>
  <path d="M42.59,118.428 C35.834,116.85 28.185,114.557 22.395,111.726 C20.922,105.744 25.136,100.686 34.44,107.33 C38.967,110.564 41.688,114.86 42.59,118.428 Z" fill="#A15700"/>
  <path d="M80.31,78.75 C62.56,75.91 56.81,101.39 56.81,101.39 C56.81,101.39 50.88,123.49 73.91,120.58 C81.27,119.65 96.43,116.34 106.06,111.5 C110.76,109.14 109.78,100.24 109.31,95 C107.81,78.25 89.03,80.15 80.31,78.75 Z" fill="url(#e)"/>
  <path d="M105.605,111.726 C99.815,114.557 92.166,116.85 85.41,118.428 C86.312,114.86 89.033,110.564 93.56,107.33 C102.864,100.686 107.078,105.744 105.605,111.726 Z" fill="#A15700"/>
  <path d="M87.39,81.88 C86.72,57.21 76.64,7 76.64,7 L51.25,7 C51.25,7 41.17,57.21 40.5,81.88 C40.19,93.29 40.42,104.81 42.75,110.69 C44.54,115.19 47.25,119.45 51.84,121.44 C55.66,123.09 59.78,123.79 63.88,123.74 C67.11,123.7 70.5,123.12 73.65,122.29 C79.52,120.73 82.98,116.15 85.15,110.69 C87.47,104.8 87.7,93.28 87.39,81.88 Z" fill="url(#b)"/>
  <path d="M74.16,10.03 C76.08,19.93 83.25,57.95 84.3,79.58 C84.37,81.08 85.54,82.3 87.04,82.42 C98.62,83.41 105.48,85.83 106.33,95.27 L106.38,95.83 C106.72,99.6 107.44,107.45 104.72,108.82 C97.31,112.54 86.16,115.42 78.2,116.87 C77.74,116.95 77.31,117.14 76.93,117.42 C75.7,118.34 74.38,118.99 72.87,119.39 C69.65,120.25 66.52,120.72 63.84,120.75 L63.45,120.75 C59.66,120.75 56.15,120.06 53.03,118.71 C52.28,118.39 51.56,117.95 50.82,117.39 C50.44,117.1 50,116.91 49.54,116.82 C41.65,115.36 30.61,112.5 23.29,108.82 C20.57,107.46 21.29,99.6 21.63,95.83 L21.68,95.27 C22.11,90.49 24.12,87.33 28.01,85.31 C31.62,83.44 36.32,82.82 40.85,82.43 C42.35,82.3 43.52,81.09 43.59,79.59 C44.64,57.97 51.79,19.94 53.71,10.03 L74.16,10.03 M76.62,7.03 L51.25,7.03 C51.25,7.03 41.83,54.04 40.6,79.44 C31.4,80.24 19.85,82.01 18.69,95 C18.22,100.24 17.24,109.14 21.94,111.5 C29.7,115.4 41.03,118.3 49,119.77 C49.86,120.43 50.8,121.01 51.84,121.47 C55.53,123.07 59.49,123.75 63.45,123.75 L63.87,123.75 C67.1,123.71 70.49,123.12 73.64,122.29 C75.59,121.77 77.27,120.92 78.73,119.82 C86.71,118.37 98.21,115.44 106.06,111.5 C110.76,109.14 109.78,100.24 109.31,95 C108.14,81.96 96.51,80.22 87.29,79.43 C86.06,54.03 76.62,7.03 76.62,7.03 Z" fill="url(#a)"/>
</svg>
